Newaita-dark/apps/64/byobu.svg

<svg height="64" viewBox="0 0 64 64" width="64" xmlns="http://www.w3.org/2000/svg" xmlns:xlink="http://www.w3.org/1999/xlink"><linearGradient id="a" gradientUnits="userSpaceOnUse" x1="30.429985" x2="30.429985" y1="56.067868" y2="58.71395600006"><stop offset="0" stop-opacity=".27451"/><stop offset="1" stop-opacity="0"/></linearGradient><linearGradient id="b"><stop offset="0" stop-opacity=".313726"/><stop offset=".222222" stop-opacity=".27451"/><stop offset="1" stop-opacity="0"/></linearGradient><radialGradient id="c" cx="450.908936" cy="189.579361" gradientTransform="matrix(.00000035 -.156265 -.281277 -.0000002 106.907377 127.190665)" gradientUnits="userSpaceOnUse" r="21.166656" xlink:href="#b"/><radialGradient id="d" cx="450.908936" cy="189.579361" gradientTransform="matrix(-.00000035 .156265 .281277 .0000002 -43.401308 -15.054958)" gradientUnits="userSpaceOnUse" r="21.166656" xlink:href="#b"/><radialGradient id="e" cx="450.908936" cy="189.579361" gradientTransform="matrix(-.00000035 -.156265 .281277 -.0000002 -43.401308 127.190665)" gradientUnits="userSpaceOnUse" r="21.166656" xlink:href="#b"/><radialGradient id="f" cx="450.908936" cy="189.579361" gradientTransform="matrix(.00000035 .156265 -.281277 .0000002 106.907373 -15.054959)" gradientUnits="userSpaceOnUse" r="21.166656" xlink:href="#b"/><linearGradient id="g" gradientTransform="matrix(.144147 0 0 .381253 -9.818413 62.352984)" gradientUnits="userSpaceOnUse" x1="306.752655" x2="305.954529" y1="-16.485477" y2="-141.414581"><stop offset="0" stop-color="#795548"/><stop offset="1" stop-color="#a1887f"/></linearGradient><linearGradient id="h" gradientUnits="userSpaceOnUse" x1="31.753048" x2="31.753048" y1="56.067868" y2="8.438296"><stop offset="0" stop-color="#8d6e63"/><stop offset="1" stop-color="#a1887f"/></linearGradient><linearGradient id="i" gradientUnits="userSpaceOnUse" x1="25.13782899994" x2="25.13782899994" y1="56.067868" y2="8.438296"><stop offset="0" stop-color="#bdbdbd"/><stop offset="1" stop-color="#e0e0e0"/></linearGradient><path d="m9.261719 56.214844h44.984375v2.5h-44.984375zm0 0" fill="url(#a)"/><path d="m54.246094 56.066406h5.289062v-2.644531h-5.289062zm0 0" fill="url(#c)"/><path d="m9.261719 56.066406h-5.292969v2.648438h5.292969zm0 0" fill="url(#d)"/><path d="m9.261719 56.066406h-5.292969v-2.644531h5.292969zm0 0" fill="url(#e)"/><path d="m54.246094 56.066406h5.289062v2.648438h-5.289062zm0 0" fill="url(#f)"/><path d="m6.613281 8.4375h50.277344c1.460937 0 2.644531 1.121094 2.644531 2.5v42.632812c0 1.378907-1.183594 2.496094-2.644531 2.496094h-50.277344c-1.460937 0-2.644531-1.117187-2.644531-2.496094v-42.632812c0-1.378906 1.183594-2.5 2.644531-2.5zm0 0" fill="url(#g)"/><path d="m7.9375 11.085938h47.628906c.730469 0 1.324219.589843 1.324219 1.320312v39.691406c0 .730469-.59375 1.324219-1.324219 1.324219h-47.628906c-.730469 0-1.324219-.59375-1.324219-1.324219v-39.691406c0-.730469.59375-1.320312 1.324219-1.320312zm0 0" fill="url(#h)"/><path d="m6.613281 8.4375c-1.464843 0-2.644531 1.117188-2.644531 2.5v.660156c0-1.382812 1.179688-2.496094 2.644531-2.496094h50.277344c1.464844 0 2.644531 1.113282 2.644531 2.496094v-.660156c0-1.382812-1.179687-2.5-2.644531-2.5zm0 0" fill="#fff" fill-opacity=".313726"/><path d="m6.613281 56.085938c-1.464843 0-2.644531-1.113282-2.644531-2.5v-.660157c0 1.382813 1.179688 2.5 2.644531 2.5h50.277344c1.464844 0 2.644531-1.117187 2.644531-2.5v.660157c0 1.386718-1.179687 2.5-2.644531 2.5zm0 0" fill-opacity=".235294"/><path d="m52.901198-147.506445h402.180344c11.686384 0 21.15423 8.967893 21.15423 19.99809v341.029933c0 11.030197-9.467846 19.966843-21.15423 19.966843h-402.180344c-11.686384 0-21.15423-8.936646-21.15423-19.966843v-341.029933c0-11.030197 9.467846-19.99809 21.15423-19.99809zm0 0" fill="none" stroke="#212121" stroke-linecap="round" stroke-width="3" transform="matrix(.125012 0 0 .125012 0 26.877566)"/><path d="m12.683594 16.054688c-.519532-.515626-1.355469-.515626-1.871094 0-.519531.519531-.519531 1.355468 0 1.871093l3.742188 3.742188-3.742188 3.742187c-.519531.519532-.519531 1.351563 0 1.871094.515625.519531 1.351562.519531 1.871094 0l4.675781-4.675781c.03125-.035157.0625-.066407.089844-.101563.425781-.519531.398437-1.285156-.089844-1.769531zm0 0" fill="url(#i)"/><path d="m11.746094 15.667969c-.335938 0-.675782.128906-.933594.386719-.34375.34375-.460938.824218-.347656 1.261718.054687-.222656.171875-.433594.347656-.609375.515625-.519531 1.351562-.519531 1.871094 0l4.675781 4.679688c.175781.171875.292969.386719.347656.609375.113281-.4375-.003906-.917969-.347656-1.261719l-4.675781-4.679687c-.261719-.257813-.597656-.386719-.9375-.386719zm2.480468 6.328125-3.414062 3.414062c-.34375.34375-.460938.824219-.347656 1.261719.054687-.222656.171875-.433594.347656-.609375l3.742188-3.742188zm0 0" fill="#fff" fill-opacity=".784314"/><path d="m10.464844 17.320312c-.113282.441407.003906.921876.347656 1.269532l3.410156 3.410156.332032-.332031-3.742188-3.742188c-.175781-.171875-.289062-.382812-.347656-.605469zm7.242187 4.679688c-.046875.179688-.132812.351562-.253906.503906-.03125.035156-.0625.066406-.09375.101563l-4.675781 4.675781c-.519532.519531-1.355469.519531-1.871094 0-.175781-.171875-.289062-.382812-.347656-.605469-.113282.4375.003906.921875.347656 1.269531.515625.515626 1.351562.515626 1.871094 0l4.675781-4.679687c.03125-.03125.0625-.066406.09375-.101563.269531-.332031.355469-.769531.253906-1.164062zm0 0" fill-opacity=".235294"/><path d="m101.459061-86.574764c-4.155853-4.124606-10.842714-4.124606-14.967321 0-4.155853 4.155853-4.155853 10.842715 0 14.967321l29.934642 29.934641-29.934642 29.934641c-4.155853 4.155854-4.155853 10.811468 0 14.967321 4.124607 4.155853 10.811468 4.155853 14.967321 0l37.402678-37.402678c.249976-.281223.499953-.531199.718682-.812422 3.405924-4.155854 3.187195-10.280269-.718682-14.154899zm0 0" fill="none" stroke="#212121" stroke-linecap="round" stroke-width="3" transform="matrix(.125012 0 0 .125012 0 26.877566)"/><path d="m7.9375 11.25c-.730469 0-1.324219.589844-1.324219 1.324219v.496093c0-.734374.59375-1.324218 1.324219-1.324218h47.628906c.734375 0 1.324219.589844 1.324219 1.324218v-.496093c0-.734375-.589844-1.324219-1.324219-1.324219zm0 0" fill-opacity=".235294"/><path d="m7.9375 54.097656c-.730469 0-1.324219-.589844-1.324219-1.324218v-.496094c0 .734375.59375 1.324218 1.324219 1.324218h47.628906c.734375 0 1.324219-.589843 1.324219-1.324218v.496094c0 .734374-.589844 1.324218-1.324219 1.324218zm0 0" fill="#fff" fill-opacity=".392157"/><path d="m63.493937-126.320968h380.994866c5.843192 0 10.592739 4.718299 10.592739 10.561491v317.50093c0 5.843192-4.749547 10.592739-10.592739 10.592739h-380.994866c-5.843192 0-10.592739-4.749547-10.592739-10.592739v-317.50093c0-5.843192 4.749547-10.561491 10.592739-10.561491zm0 0" fill="none" stroke="#212121" stroke-linecap="round" stroke-linejoin="round" stroke-width="3" transform="matrix(.125012 0 0 .125012 0 26.877566)"/></svg>

<?xml version="1.0" encoding="UTF-8"?>
<svg xmlns="http://www.w3.org/2000/svg" xmlns:xlink="http://www.w3.org/1999/xlink" width="64px" height="64px" viewBox="0 0 64 64" version="1.1">
<defs>
<linearGradient id="linear0" gradientUnits="userSpaceOnUse" x1="254" y1="233.5" x2="254" y2="254.666672" gradientTransform="matrix(0.125012,0,0,0.125012,-1.323063,26.877566)">
<stop offset="0" style="stop-color:rgb(0%,0%,0%);stop-opacity:0.27451;"/>
<stop offset="1" style="stop-color:rgb(0%,0%,0%);stop-opacity:0;"/>
</linearGradient>
<radialGradient id="radial0" gradientUnits="userSpaceOnUse" cx="450.908936" cy="189.579361" fx="450.908936" fy="189.579361" r="21.166656" gradientTransform="matrix(0.000000348341,-0.156265,-0.281277,-0.000000203077,106.907377,127.190665)">
<stop offset="0" style="stop-color:rgb(0%,0%,0%);stop-opacity:0.313726;"/>
<stop offset="0.222222" style="stop-color:rgb(0%,0%,0%);stop-opacity:0.27451;"/>
<stop offset="1" style="stop-color:rgb(0%,0%,0%);stop-opacity:0;"/>
</radialGradient>
<radialGradient id="radial1" gradientUnits="userSpaceOnUse" cx="450.908936" cy="189.579361" fx="450.908936" fy="189.579361" r="21.166656" gradientTransform="matrix(-0.000000348341,0.156265,0.281277,0.000000203077,-43.401308,-15.054958)">
<stop offset="0" style="stop-color:rgb(0%,0%,0%);stop-opacity:0.313726;"/>
<stop offset="0.222222" style="stop-color:rgb(0%,0%,0%);stop-opacity:0.27451;"/>
<stop offset="1" style="stop-color:rgb(0%,0%,0%);stop-opacity:0;"/>
</radialGradient>
<radialGradient id="radial2" gradientUnits="userSpaceOnUse" cx="450.908936" cy="189.579361" fx="450.908936" fy="189.579361" r="21.166656" gradientTransform="matrix(-0.000000348341,-0.156265,0.281277,-0.000000203077,-43.401308,127.190665)">
<stop offset="0" style="stop-color:rgb(0%,0%,0%);stop-opacity:0.313726;"/>
<stop offset="0.222222" style="stop-color:rgb(0%,0%,0%);stop-opacity:0.27451;"/>
<stop offset="1" style="stop-color:rgb(0%,0%,0%);stop-opacity:0;"/>
</radialGradient>
<radialGradient id="radial3" gradientUnits="userSpaceOnUse" cx="450.908936" cy="189.579361" fx="450.908936" fy="189.579361" r="21.166656" gradientTransform="matrix(0.000000348341,0.156265,-0.281277,0.000000203077,106.907373,-15.054959)">
<stop offset="0" style="stop-color:rgb(0%,0%,0%);stop-opacity:0.313726;"/>
<stop offset="0.222222" style="stop-color:rgb(0%,0%,0%);stop-opacity:0.27451;"/>
<stop offset="1" style="stop-color:rgb(0%,0%,0%);stop-opacity:0;"/>
</radialGradient>
<linearGradient id="linear1" gradientUnits="userSpaceOnUse" x1="306.752655" y1="-16.485477" x2="305.954529" y2="-141.414581" gradientTransform="matrix(0.144147,0,0,0.381253,-9.818413,62.352984)">
<stop offset="0" style="stop-color:rgb(47.450981%,33.333334%,28.235295%);stop-opacity:1;"/>
<stop offset="1" style="stop-color:rgb(63.137257%,53.333336%,49.803922%);stop-opacity:1;"/>
</linearGradient>
<linearGradient id="linear2" gradientUnits="userSpaceOnUse" x1="254" y1="233.5" x2="254" y2="-147.5" gradientTransform="matrix(0.125012,0,0,0.125012,0,26.877566)">
<stop offset="0" style="stop-color:rgb(55.29412%,43.137255%,38.82353%);stop-opacity:1;"/>
<stop offset="1" style="stop-color:rgb(63.137257%,53.333336%,49.803922%);stop-opacity:1;"/>
</linearGradient>
<linearGradient id="linear3" gradientUnits="userSpaceOnUse" x1="201.083328" y1="233.5" x2="201.083328" y2="-147.5" gradientTransform="matrix(0.125012,0,0,0.125012,0,26.877566)">
<stop offset="0" style="stop-color:rgb(74.117649%,74.117649%,74.117649%);stop-opacity:1;"/>
<stop offset="1" style="stop-color:rgb(87.843138%,87.843138%,87.843138%);stop-opacity:1;"/>
</linearGradient>
</defs>
<g id="surface1">
<path style=" stroke:none;fill-rule:nonzero;fill:url(#linear0);" d="M 9.261719 56.214844 L 54.246094 56.214844 L 54.246094 58.714844 L 9.261719 58.714844 Z M 9.261719 56.214844 "/>
<path style=" stroke:none;fill-rule:nonzero;fill:url(#radial0);" d="M 54.246094 56.066406 L 59.535156 56.066406 L 59.535156 53.421875 L 54.246094 53.421875 Z M 54.246094 56.066406 "/>
<path style=" stroke:none;fill-rule:nonzero;fill:url(#radial1);" d="M 9.261719 56.066406 L 3.96875 56.066406 L 3.96875 58.714844 L 9.261719 58.714844 Z M 9.261719 56.066406 "/>
<path style=" stroke:none;fill-rule:nonzero;fill:url(#radial2);" d="M 9.261719 56.066406 L 3.96875 56.066406 L 3.96875 53.421875 L 9.261719 53.421875 Z M 9.261719 56.066406 "/>
<path style=" stroke:none;fill-rule:nonzero;fill:url(#radial3);" d="M 54.246094 56.066406 L 59.535156 56.066406 L 59.535156 58.714844 L 54.246094 58.714844 Z M 54.246094 56.066406 "/>
<path style=" stroke:none;fill-rule:nonzero;fill:url(#linear1);" d="M 6.613281 8.4375 L 56.890625 8.4375 C 58.351562 8.4375 59.535156 9.558594 59.535156 10.9375 L 59.535156 53.570312 C 59.535156 54.949219 58.351562 56.066406 56.890625 56.066406 L 6.613281 56.066406 C 5.152344 56.066406 3.96875 54.949219 3.96875 53.570312 L 3.96875 10.9375 C 3.96875 9.558594 5.152344 8.4375 6.613281 8.4375 Z M 6.613281 8.4375 "/>
<path style=" stroke:none;fill-rule:nonzero;fill:url(#linear2);" d="M 7.9375 11.085938 L 55.566406 11.085938 C 56.296875 11.085938 56.890625 11.675781 56.890625 12.40625 L 56.890625 52.097656 C 56.890625 52.828125 56.296875 53.421875 55.566406 53.421875 L 7.9375 53.421875 C 7.207031 53.421875 6.613281 52.828125 6.613281 52.097656 L 6.613281 12.40625 C 6.613281 11.675781 7.207031 11.085938 7.9375 11.085938 Z M 7.9375 11.085938 "/>
<path style=" stroke:none;fill-rule:nonzero;fill:rgb(100%,100%,100%);fill-opacity:0.313726;" d="M 6.613281 8.4375 C 5.148438 8.4375 3.96875 9.554688 3.96875 10.9375 L 3.96875 11.597656 C 3.96875 10.214844 5.148438 9.101562 6.613281 9.101562 L 56.890625 9.101562 C 58.355469 9.101562 59.535156 10.214844 59.535156 11.597656 L 59.535156 10.9375 C 59.535156 9.554688 58.355469 8.4375 56.890625 8.4375 Z M 6.613281 8.4375 "/>
<path style=" stroke:none;fill-rule:nonzero;fill:rgb(0%,0%,0%);fill-opacity:0.235294;" d="M 6.613281 56.085938 C 5.148438 56.085938 3.96875 54.972656 3.96875 53.585938 L 3.96875 52.925781 C 3.96875 54.308594 5.148438 55.425781 6.613281 55.425781 L 56.890625 55.425781 C 58.355469 55.425781 59.535156 54.308594 59.535156 52.925781 L 59.535156 53.585938 C 59.535156 54.972656 58.355469 56.085938 56.890625 56.085938 Z M 6.613281 56.085938 "/>
<path style="fill:none;stroke-width:3;stroke-linecap:round;stroke-linejoin:miter;stroke:rgb(12.941177%,12.941177%,12.941177%);stroke-opacity:1;stroke-miterlimit:4;" d="M 52.901198 -147.506445 L 455.081542 -147.506445 C 466.767926 -147.506445 476.235772 -138.538552 476.235772 -127.508355 L 476.235772 213.521578 C 476.235772 224.551775 466.767926 233.488421 455.081542 233.488421 L 52.901198 233.488421 C 41.214814 233.488421 31.746968 224.551775 31.746968 213.521578 L 31.746968 -127.508355 C 31.746968 -138.538552 41.214814 -147.506445 52.901198 -147.506445 Z M 52.901198 -147.506445 " transform="matrix(0.125012,0,0,0.125012,0,26.877566)"/>
<path style=" stroke:none;fill-rule:nonzero;fill:url(#linear3);" d="M 12.683594 16.054688 C 12.164062 15.539062 11.328125 15.539062 10.8125 16.054688 C 10.292969 16.574219 10.292969 17.410156 10.8125 17.925781 L 14.554688 21.667969 L 10.8125 25.410156 C 10.292969 25.929688 10.292969 26.761719 10.8125 27.28125 C 11.328125 27.800781 12.164062 27.800781 12.683594 27.28125 L 17.359375 22.605469 C 17.390625 22.570312 17.421875 22.539062 17.449219 22.503906 C 17.875 21.984375 17.847656 21.21875 17.359375 20.734375 Z M 12.683594 16.054688 "/>
<path style=" stroke:none;fill-rule:nonzero;fill:rgb(100%,100%,100%);fill-opacity:0.784314;" d="M 11.746094 15.667969 C 11.410156 15.667969 11.070312 15.796875 10.8125 16.054688 C 10.46875 16.398438 10.351562 16.878906 10.464844 17.316406 C 10.519531 17.09375 10.636719 16.882812 10.8125 16.707031 C 11.328125 16.1875 12.164062 16.1875 12.683594 16.707031 L 17.359375 21.386719 C 17.535156 21.558594 17.652344 21.773438 17.707031 21.996094 C 17.820312 21.558594 17.703125 21.078125 17.359375 20.734375 L 12.683594 16.054688 C 12.421875 15.796875 12.085938 15.667969 11.746094 15.667969 Z M 14.226562 21.996094 L 10.8125 25.410156 C 10.46875 25.753906 10.351562 26.234375 10.464844 26.671875 C 10.519531 26.449219 10.636719 26.238281 10.8125 26.0625 L 14.554688 22.320312 Z M 14.226562 21.996094 "/>
<path style=" stroke:none;fill-rule:nonzero;fill:rgb(0%,0%,0%);fill-opacity:0.235294;" d="M 10.464844 17.320312 C 10.351562 17.761719 10.46875 18.242188 10.8125 18.589844 L 14.222656 22 L 14.554688 21.667969 L 10.8125 17.925781 C 10.636719 17.753906 10.523438 17.542969 10.464844 17.320312 Z M 17.707031 22 C 17.660156 22.179688 17.574219 22.351562 17.453125 22.503906 C 17.421875 22.539062 17.390625 22.570312 17.359375 22.605469 L 12.683594 27.28125 C 12.164062 27.800781 11.328125 27.800781 10.8125 27.28125 C 10.636719 27.109375 10.523438 26.898438 10.464844 26.675781 C 10.351562 27.113281 10.46875 27.597656 10.8125 27.945312 C 11.328125 28.460938 12.164062 28.460938 12.683594 27.945312 L 17.359375 23.265625 C 17.390625 23.234375 17.421875 23.199219 17.453125 23.164062 C 17.722656 22.832031 17.808594 22.394531 17.707031 22 Z M 17.707031 22 "/>
<path style="fill:none;stroke-width:3;stroke-linecap:round;stroke-linejoin:miter;stroke:rgb(12.941177%,12.941177%,12.941177%);stroke-opacity:1;stroke-miterlimit:4;" d="M 101.459061 -86.574764 C 97.303208 -90.69937 90.616347 -90.69937 86.49174 -86.574764 C 82.335887 -82.418911 82.335887 -75.732049 86.49174 -71.607443 L 116.426382 -41.672802 L 86.49174 -11.738161 C 82.335887 -7.582307 82.335887 -0.926693 86.49174 3.22916 C 90.616347 7.385013 97.303208 7.385013 101.459061 3.22916 L 138.861739 -34.173518 C 139.111715 -34.454741 139.361692 -34.704717 139.580421 -34.98594 C 142.986345 -39.141794 142.767616 -45.266209 138.861739 -49.140839 Z M 101.459061 -86.574764 " transform="matrix(0.125012,0,0,0.125012,0,26.877566)"/>
<path style=" stroke:none;fill-rule:nonzero;fill:rgb(0%,0%,0%);fill-opacity:0.235294;" d="M 7.9375 11.25 C 7.207031 11.25 6.613281 11.839844 6.613281 12.574219 L 6.613281 13.070312 C 6.613281 12.335938 7.207031 11.746094 7.9375 11.746094 L 55.566406 11.746094 C 56.300781 11.746094 56.890625 12.335938 56.890625 13.070312 L 56.890625 12.574219 C 56.890625 11.839844 56.300781 11.25 55.566406 11.25 Z M 7.9375 11.25 "/>
<path style=" stroke:none;fill-rule:nonzero;fill:rgb(100%,100%,100%);fill-opacity:0.392157;" d="M 7.9375 54.097656 C 7.207031 54.097656 6.613281 53.507812 6.613281 52.773438 L 6.613281 52.277344 C 6.613281 53.011719 7.207031 53.601562 7.9375 53.601562 L 55.566406 53.601562 C 56.300781 53.601562 56.890625 53.011719 56.890625 52.277344 L 56.890625 52.773438 C 56.890625 53.507812 56.300781 54.097656 55.566406 54.097656 Z M 7.9375 54.097656 "/>
<path style="fill:none;stroke-width:3;stroke-linecap:round;stroke-linejoin:round;stroke:rgb(12.941177%,12.941177%,12.941177%);stroke-opacity:1;stroke-miterlimit:4;" d="M 63.493937 -126.320968 L 444.488803 -126.320968 C 450.331995 -126.320968 455.081542 -121.602669 455.081542 -115.759477 L 455.081542 201.741453 C 455.081542 207.584645 450.331995 212.334192 444.488803 212.334192 L 63.493937 212.334192 C 57.650745 212.334192 52.901198 207.584645 52.901198 201.741453 L 52.901198 -115.759477 C 52.901198 -121.602669 57.650745 -126.320968 63.493937 -126.320968 Z M 63.493937 -126.320968 " transform="matrix(0.125012,0,0,0.125012,0,26.877566)"/>
</g>
</svg>
